icons/arrow-refresh-3-filled.svg

<svg viewBox="0 0 24 24"><path fill="currentColor" fill-rule="evenodd" d="M21.6 18a3.6 3.6 0 0 1-3.6 3.6h-12a3.6 3.6 0 0 1-3.6-3.6v-12a3.6 3.6 0 0 1 3.6-3.6h12a3.6 3.6 0 0 1 3.6 3.6zm-12.8-9.4v-.4a5 5 0 0 0-1.8 3.9c0 2.1 1.3 4 3.1 4.7a1 1 0 1 1-.7 1.9c-2.6-1.1-4.4-3.7-4.4-6.6q.1-3.6 2.6-5.6h-.8a1 1 0 0 1 0-2h3a1 1 0 0 1 1 1v3.1a1 1 0 1 1-2 0Zm5-1.4a1 1 0 0 1 .8-1.8c2.6 1 4.4 3.6 4.4 6.6a7 7 0 0 1-2.6 5.5h.9a1 1 0 0 1 0 2h-3a1 1 0 0 1-1-1v-3a1 1 0 0 1 2 0v.4a5 5 0 0 0 1.7-4c0-2-1.3-4-3.1-4.7Z" clip-rule="evenodd"/></svg>

<svg viewBox="0 0 24 24"><path fill="currentColor" fill-rule="evenodd" d="M21.6 18a3.6 3.6 0 0 1-3.6 3.6H6A3.6 3.6 0 0 1 2.4 18V6A3.6 3.6 0 0 1 6 2.4h12A3.6 3.6 0 0 1 21.6 6zM8.8 8.6v-.4A5 5 0 0 0 7 12c0 2.1 1.3 4 3.1 4.7a1 1 0 1 1-.7 1.9C6.8 17.6 5 15 5 12q.1-3.6 2.6-5.6h-.8a1 1 0 0 1 0-2h3a1 1 0 0 1 1 1v3.1a1 1 0 1 1-2 0m5-1.4a1 1 0 0 1 .8-1.8C17.2 6.4 19 9 19 12a7 7 0 0 1-2.6 5.5h.9a1 1 0 0 1 0 2h-3a1 1 0 0 1-1-1v-3a1 1 0 0 1 2 0v.4a5 5 0 0 0 1.7-4c0-2-1.3-4-3.1-4.7" clip-rule="evenodd"/></svg>
